component-icons/svg/spreadsheet.svg

<?xml version="1.0" encoding="utf-8"?>
<!-- Generator: Adobe Illustrator 14.0.0, SVG Export Plug-In . SVG Version: 6.00 Build 43363)  -->
<!DOCTYPE svg PUBLIC "-//W3C//DTD SVG 1.1//EN" "http://www.w3.org/Graphics/SVG/1.1/DTD/svg11.dtd">
<svg version="1.1" id="Layer_1" xmlns="http://www.w3.org/2000/svg" xmlns:xlink="http://www.w3.org/1999/xlink" x="0px" y="0px"
	 width="24px" height="24px" viewBox="0 0 24 24" enable-background="new 0 0 24 24" xml:space="preserve">
<path fill="#818181" d="M20,8h-2V6l2-2H4v16l2-2h4v2l2-2h4v2l4-4h-2v-2l2-2h-2v-2L20,8z M16,6v2h-4V6H16z M6,6h4v2H6V6z M6,10h4v2H6
	V10z M6,16v-2h4v2H6z M16,16h-4v-2h4V16z M16,12h-4v-2h4V12z M0,0v24h20l4-4V0H0z M22,19.172L19.172,22H2V2h20V19.172z"/>
</svg>

<svg id="Layer_1" data-name="Layer 1" xmlns="http://www.w3.org/2000/svg" viewBox="0 0 24 24">
  <defs>
    <style>
      .cls-1 {
        fill: gray;
      }
    </style>
  </defs>
  <title>spreadsheet</title>
  <path class="cls-1" d="M0,0V24H20l4-4V0ZM22,19.17,19.17,22H2V2H22ZM10,18v2l2-2h4v2l4-4H18V14l2-2H18V10l2-2H18V6l2-2H4V20l2-2ZM12,6h4V8H12Zm0,4h4v2H12Zm0,4h4v2H12ZM6,6h4V8H6Zm0,4h4v2H6Zm0,4h4v2H6Z"/>
</svg>
